X:1
T:His Eye Is on the Sparrow
T:His Eye Is on the Sparrow
T:Charles Hutchinson Gabriel
T:Civilla Durfee Martin, 1905
T:Public Domain Courtesy of the Cyber Hymnal™
T:Public Domain Courtesy of the Cyber Hymnal™
C:Charles Hutchinson Gabriel
Z:Public Domain
Z:Courtesy of the Cyber Hymnal™
%%score ( 1 2 ) ( 3 4 )
L:1/8
Q:1/4=100
M:6/8
K:D
V:1 treble 
V:2 treble 
V:3 bass 
V:4 bass 
V:1
 ABA F2 D | E F2- F3 | GAB d2 d | A3- A2 z | A3- [EG] A2 B2 F | A G2- G3 | GFE (A2 A) | F3- F2 A | %8
w: 1.~Why should I feel dis-|cour- aged, *|Why should the~sha- dows come,|Why *|should my~heart * be lo-|ne- ly *|And long for Heav’n *|and * home,|
w: 2.~“Let not your heart be|trou- bled,” *|His~ten- der word I hear,|And *|rest- ing~on * His go-|od- ness, *|I lose my doubts *|and * fears;|
w: 3.~When- ev- er I am|tempt- ed, *|When- ev- er~clouds a- rise,|When *|songs give~place * to si-|gh- ing, *|When hope with- in *|me * dies,|
 [Fd]2 [Ec] ([Ge][Fd])[DF] | (A2 A2-) A2 A | d2 c ([Ge][Fd])A | B3- [^DA] B2 B | [Ec]2 c (cB)[Ec] | %13
w: When Je- sus * is|my * * por-|tion? My con- * stant|friend is * He:|His eye is * on|
w: Though by the * path|He * * lead-|eth But one * step|I may * see;|His eye is * on|
w: I draw the * clos-|er * * to|Him, From care * He|sets me * free;|His eye is * on|
 d (A2 [FA]2) F/F/ | A2 B A2 B | (A- A2-) [FA]2 [FA] | d2 d d2 d | d D2- D2 D/D/ | A2 F F E2 | %19
w: the spar- * row, And|I know He~watch- es|me; * His eye~is|on the sparrow, And|I know * He watch-|es me; * *|
w: the spar- * row, And|I know He~watch- es|me; * His eye~is|on the sparrow, And|I know * He watch-|es me; I sing|
w: the spar- * row, And|I know He~watch- es|me; * His eye~is|on the sparrow, And|I know * He watch-|es me; * *|
 D2- [B,D-] [A,D]2 ||"^Refrain" [FA] | [GA]2 [Gc] [Ge]2 [GA] | [FA] d2- d2 [FA] | A2 [Gc] [Ge]2 A | %24
w: |||||
w: be- cause I’m|ha-|ppy~(I’m hap- py), I|sing be- * cause|I’m free~(I’m free), For|
w: |||||
 f3- f2 [Fd]/[Fd]/ | [Fd]2 [Fd] [Fd]2 [Fd] | [Dd] (D2 D2) D/D/ | [DA]2 [DF] [CF] [CE]2 | [A,D]6 |] %29
w: |||||
w: His * eye is|on the spar- row,|And I * know He|wat- ches me. *||
w: |||||
V:2
 D3- D3 | C D(D D3) | D3- D3 | D2 E F2 x | F^D F3 x4 | FEE E3 | E3 C3 | D2 D D2 F | x6 | %9
 F2 F GGG x | F2 F x F x | ([^DG]2 [EG]3) x2 | x3 E2 x | D3 x D x | G3- G3 | x (DE) x3 | F3- F3 | %17
 D3 x3 | D3 C3 | x5 || x | x6 | x FG F<F x | G2 x4 | A2 A A2 x | x6 | x6 | x6 | x6 |] %29
V:3
 F,G,F, A,2 F, | [A,,G,][D,A,][D,A,] (A,2 =C) | B,A,G, [G,B,]2 [B,,G,] | F,2 G, [D,A,]2 z | %4
 [B,,B,]3 [^D,B,]3 x3 | [E,B,]2 [E,B,] (B,2 B,) | [C,A,]3 (E,2 A,) | [D,A,]2 [D,A,] [D,A,]2 [D,D] | %8
 [D,A,]3- [D,A,]3 | ([D,A,]2 [^D,=C]) ([E,^C][E,C])[A,C] x | [D,A,]3 [D,A,]3 | G,2 F, E,3 x | %12
 [A,,A,]3 [G,A,]3 | A,2 D [^D,=C]3 | [E,C]3 [A,,C]3 | DF,G, A,2 [D,D] | [C,A,]3- [C,A,]3 | %17
 [B,,G,]3 [^A,,G,]3 | F,2 A, A, G,2 | F,2 G, F,2 || [D,D] | [A,C]2 [A,E] [A,C]2 [A,C] | %22
 [D,D][D,A,][D,B,] [D,A,]<[D,A,][D,D] | [E,C]2 [A,E] [A,,C]2 [A,C] | %24
 [D,D]2 [D,D] [D,D]2 [D,A,]/[D,A,]/ | [=C,A,]2 [C,A,] [C,A,]2 [C,A,] | %26
 [B,,G,] [B,,G,]2 [^A,,G,]2 [A,,G,]/[A,,G,]/ | [A,,F,]2 [A,,A,] [A,,A,] [A,,G,]2 | [D,F,]6 |] %29
V:4
 D,3- D,3 | x3 D,3 | G,3 x3 | D,3- x3 | x9 | x3 D,3 | x3 A,,3 | x6 | x6 | x7 | x6 | x7 | x6 | %13
 F,3 x3 | x6 | D,3- D,2 x | x6 | x6 | A,,3- A,,3 | D,3- D,2 || x | x6 | x6 | x6 | x6 | x6 | x6 | %27
 x6 | x6 |] %29

